!!!OTL: Folk song Number 16
!!!CNT: Chinese
**kern
*k[f#c#]
*M2/4
=1
4b
4a
=2
(16dd
4..ee)
=3
8b
8dd
8ee
(16dd
16ee)
=4
(16ff#
4..ee)
=5
8dd
8b
4b
=6
(16ee
4..dd)
=7
4dd
4a
=8
(16b
4..a)
=9
8dd
16dd
16ee
8dd
8ee;
=10
8ff#
8dd
(16ee
16ff#)
[(8ee
=11
4.ee]
16dd
16b)
=12
16dd
16ee
16ee
16dd
4b
=13
2a
=14
(8ee
8dd)
4b
=15
(16b
4..a)
==
*-
!!!PPR: Yin yueh ch'u pan she
!!!OPR: Chung-kuo min ko Chung-kuo yin yueh yen chiu so pien [Chinese folk songs]
!!!OCL: Chung-kuo yin yueh yen chiu so
!!!PPP: Beijing, China
!!!PDT: 1959///
!!!SML: Edward Johnson Library, University of Toronto M1804.C4694C5
!!!PPG: p.10
!!!ENC: David Huron
!!!EMD: Paul von Hippel updated this file in the following ways (1998/9/29/):
!!!EMD:  (1) changed the representation of slurs from curly braces to parentheses 
!!!EMD:  (2) changed freeform comments into reference records and tandem interpretations
!!!EMD:  (3) corrected the author, title, author, and call number of the printed source 
!!!EEV: Version 2.0
